!!!COM: Palestrina, Giovanni Perluigi da
!!!OPR: Missa Hodie Christus Natus Est
!!!OMD: Sanctus
!!!OTL: Hosanna
**kern	**kern	**kern	**kern	**kern	**kern	**kern	**kern
*Ibass	*Itenor	*Itenor	*Icalto	*Ibass	*Icalto	*Icant	*Icant
!Bassus	!Tenor 2	!Tenor 1	!Altus	!Bassus	!Altus	!Cantus 2	!Cantus 1
*clefF4	*clefGv2	*clefGv2	*clefG2	*clefF4	*clefG2	*clefG2	*clefG2
*k[]	*k[]	*k[]	*k[]	*k[]	*k[]	*k[]	*k[]
*G:mix	*G:mix	*G:mix	*G:mix	*G:mix	*G:mix	*G:mix	*G:mix
*M4/2	*M4/2	*M4/2	*M4/2	*M4/2	*M4/2	*M4/2	*M4/2
=64	=64	=64	=64	=64	=64	=64	=64
0r	1r	0r	1g	0r	0r	0r	0r
.	1d	.	2.a	.	.	.	.
.	.	.	4f	.	.	.	.
=65	=65	=65	=65	=65	=65	=65	=65
0r	2.e	1r	2g	0r	0r	0r	0r
.	.	.	2e	.	.	.	.
.	4c	.	.	.	.	.	.
.	2d	1d	2f	.	.	.	.
.	2B	.	2d	.	.	.	.
=66	=66	=66	=66	=66	=66	=66	=66
1r	1A	2.e	2c	0r	0r	0r	0r
.	.	.	2cc	.	.	.	.
.	.	4c	.	.	.	.	.
1G	2G	2d	4b	.	.	.	.
.	.	.	4a	.	.	.	.
.	2d	2B	4g	.	.	.	.
.	.	.	4f	.	.	.	.
=67	=67	=67	=67	=67	=67	=67	=67
2.A	2c	1c	2e	0r	0r	0r	0r
.	2A	.	2.a	.	.	.	.
4F	.	.	.	.	.	.	.
2G	2B	2B	.	.	.	.	.
.	.	.	4g	.	.	.	.
2E	2c	2G	[2g	.	.	.	.
=68	=68	=68	=68	=68	=68	=68	=68
1D	1d	1A	2g]	0r	0r	0r	1dd
.	.	.	2f	.	.	.	.
1C	[1g	1c	1e	.	.	.	2.ee
.	.	.	.	.	.	.	4cc
=69	=69	=69	=69	=69	=69	=69	=69
1G	1g]	1B	1d	0r	2r	1dd	2dd
.	.	.	.	.	1g	.	1b
1r	1r	1r	1r	.	.	2.ee	.
.	.	.	.	.	[2a	.	[2cc
.	.	.	.	.	.	4cc	.
=70	=70	=70	=70	=70	=70	=70	=70
0r	0r	0r	0r	0r	4a]	2ff	4cc]
.	.	.	.	.	4f	.	4a
.	.	.	.	.	1g	2ee	1b
.	.	.	.	.	.	2dd	.
.	.	.	.	.	2e	[2cc	2cc
=71	=71	=71	=71	=71	=71	=71	=71
0r	0r	0r	0r	1G	2d	2cc]	1dd
.	.	.	.	.	2g	2b	.
.	.	.	.	2.A	2e	1a	1cc
.	.	.	.	.	[2a	.	.
.	.	.	.	4F	.	.	.
=72	=72	=72	=72	=72	=72	=72	=72
0r	0r	0r	0r	2G	4a]	2dd	2b
.	.	.	.	.	4g	.	.
.	.	.	.	2E	1g	2cc	2g
.	.	.	.	1D	.	1dd	1a
.	.	.	.	.	2f#	.	.
=73	=73	=73	=73	=73	=73	=73	=73
1c	2r	2r	2r	1C	1g	1ee	1cc
.	2g	2e	2cc	.	.	.	.
2.d	2f	2d	2a	1r	1r	1r	1r
.	2d	2G	2b	.	.	.	.
4B	.	.	.	.	.	.	.
=74	=74	=74	=74	=74	=74	=74	=74
2c	2e	2g	2g	0r	0r	1r	0r
2A	2c	2f#	2cc	.	.	.	.
1G	1d	1g	4b	.	.	1dd	.
.	.	.	4a	.	.	.	.
.	.	.	4g	.	.	.	.
.	.	.	4f	.	.	.	.
=75	=75	=75	=75	=75	=75	=75	=75
1C	1c	0g	4e	0r	1r	2.ee	2r
.	.	.	4d	.	.	.	.
.	.	.	2e	.	.	.	2gg
.	.	.	.	.	.	4cc	.
1G	1B	.	1d	.	1g	2dd	2gg
.	.	.	.	.	.	2b	2gg
=76	=76	=76	=76	=76	=76	=76	=76
0r	0r	0r	0r	1r	2.a	2cc	2ee
.	.	.	.	.	.	2a	2ff
.	.	.	.	.	4f	.	.
.	.	.	.	1c	2g	2cc	4ee
.	.	.	.	.	.	.	4dd
.	.	.	.	.	2e	2ee	4cc
.	.	.	.	.	.	.	4b
=77	=77	=77	=77	=77	=77	=77	=77
0r	0r	0r	0r	2.d	2f	1dd	2a
.	.	.	.	.	2d	.	2b
.	.	.	.	4B	.	.	.
.	.	.	.	2c	2.e	2.cc	2g
.	.	.	.	2A	.	.	[2cc
.	.	.	.	.	4c	4cc	.
=78	=78	=78	=78	=78	=78	=78	=78
0r	0r	0r	0r	0G	0g	0dd	2cc]
.	.	.	.	.	.	.	4b
.	.	.	.	.	.	.	4a
.	.	.	.	.	.	.	1b
*-	*-	*-	*-	*-	*-	*-	*-
!!!CDT: 1525/^1526/-1594/2/2
!!!OCY: Italia
!!!AGN: Mass (Parody)
!!!AST: renaissance, vocal
!!!ASW: Motet 1575 (Palestrina)
!!!PWK: Masses, Book 8vce
!!!RNB: Cadence finals: C,D
!!!YOR: Le Opere Complete, v. 30, p. 59
!!!YOO: Rome, Italy: Fratelli Scalera
!!!END: 1992//
!!!EED: John Miller
!!!YEC: Copyright 2000, John Miller
!!!YEN: United States of America
!!!YEM: Rights to all derivative electronic formats reserved.
!!!YEM: Refer to licensing agreement for further details.
!!!YEM: This file must be accompanied by the licensing agreement.
!!!YEM: A copy of the licensing agreement may be found at http://www.music-cog.ohio-state.edu/HumdrumDatabases/Palestrina/license.txt
!!!EMD: converted to Humdrum by Bret Aarden
